!!!!SEGMENT: pl-wtm--r-1427--007_stefani-jozef-no-19-benedictus.krn
!!!id: 18xx:2443
!!!COM: Stefani, Józef
!!!OTL: No. 19 – Benedictus
!!!PDT:
!!!SMS-siglum: PL-Wtm
!!!SMS-shelfmark: R 1427
!!!NIFC-rismID: 1001116126
!!!URL-scan: http://repozytorium.nifc.pl/skany/pl-wtm-nut--r1427--r1428
!!!ONB-nifc: UWAGA: części Mszy: 1. Kyrie, 2. Gloria, 3. Graduale, 4. Credo, 5. Offertorium. 6. Sanctus, 7. Benedictus, 8. Agnus Dei, 9. Dona nobis
!!!SMS-variant:
!!!SMS-altvar:
!!!OMD: Andante.
**kern	**kern	**kern	**text	**dynam
*part2	*part2	*part1	*part1	*part1
*staff3	*staff2	*staff1	*staff1	*
*	*I"Organy	*I"Głos	*	*
*clefF4	*clefG2	*clefG2	*	*
*k[]	*k[]	*k[]	*	*
*M3/4	*M3/4	*M3/4	*	*
*all\right	*all\right	*all\right	*	*
4A\	4c/	4r	.	.
=1	=1	=1	=1	=1
*^	*	*	*	*
4B\	4G#X\	4d/	2.r	.	.
2A/	4Gn\	4c#X/	.	.	.
.	4F#X\	4d/	.	.	.
=2	=2	=2	=2	=2	=2
2.G/	4Fn\	4B/	2.r	.	.
.	4E\	4c/	.	.	.
.	4C\	4e 4c/	.	.	.
*v	*v	*	*	*	*
=3	=3	=3	=3	=3
*2\right	*2\right	*	*	*
*	*^	*	*	*
2D\	4d/	2B\	2.r	.	.
.	4g/	.	.	.	.
4D 4DD\	4f#X/	4c\	.	.	.
*	*v	*v	*	*	*
=4	=4	=4	=4	=4
4.G 4.GG\	4.g 4.B/	4r	.	.
!	!	!LO:TX:a:i:t=dolce	!	!
.	.	8r	.	.
8r	8r	8g/	Wszech-	.
4r	4r	8cc\	-moc-	.
.	.	8dd\	-ny	.
!!LO:LB:g=original
=5	=5	=5	=5	=5
4.C 4.CC\	4e 4c 4G</	4ee\	Pa-	.
.	8c 8G< 8E</	8cc\	-nie	.
8rA	8rg	16cc\	wie-	.
.	.	16b\	-ku-	.
8FF\L	8A<L 8F</	8a\	-is-	.
8GG\J	8B<J 8G< 8F</	8b\	-ty	.
=6	=6	=6	=6	=6
4.C 4.CC\	4.c< 4.G< 4.E</	8.cc/L	Bo-	.
.	.	16g/Jk	.	.
.	.	8g/	-że	.
8rGG	8rA<	8a/	Któż	.
4C 4CC\	4f 4c< 4A</	8cc\	się	.
.	.	8a/	Twym	.
=7	=7	=7	=7	=7
*^	*	*	*	*
4.C 4.CC\	2ryy	4.e 4.c< 4.G</	8.g/L	spra-	.
.	.	.	16cc/Jk	.	.
.	.	.	8cc\	-wom	.
8r	.	8r	16dd\	wy-	.
.	.	.	16dd\	-dzi-	.
4A/	8F\L	8d/L	8dd\	-wo-	.
.	8F#X\J	8c/J	8cc\	-wać	.
*v	*v	*	*	*	*
!!LO:LB:g=original
=8	=8	=8	=8	=8
*	*^	*	*	*
4.G\	(4B/	2ryy	(8.b\L	mo-	.
.	.	.	16dd\Jk)	.	.
.	8d 8B/)	.	8dd\	-że	.
8r	8r	.	8dd\	Kto	.
4G#X\	8e/L	4B\	8ee\	ro-	.
.	8d/J	.	8dd\	-zu-	.
*	*v	*v	*	*	*
=9	=9	=9	=9	=9
*^	*	*	*	*
4.A\	4.ryy	2c/	4cc\	-mo-	.
.	.	.	8cc\	-wi	.
8A/	8Gn\	.	16cc\	Któ-	.
.	.	.	16cc\	-rym	.
4A/	4F#X\	8d/L	8dd\	nie-	.
.	.	8cn/J	8cc\	-zmie-	.
*v	*v	*	*	*	*
=10	=10	=10	=10	=10
4G\	4B</	4b/	-rzo-	.
8D\	8A< 8F#</	8a/	-na	.
8r	8r<	8r	.	.
4r	4r<	4a/	Ta	.
!!LO:LB:g=original
=11	=11	=11	=11	=11
2E\	2G</	4g/	źie-	.
!	!	!	!	!LO:HP:a
.	.	.	.	<
.	.	4g/	-mia	.
4E 4C\	4A</	4a/	stwo-	[[
=12	=12	=12	=12	=12
!	!	!	!	!LO:HP:a
4.D#X 4.BB\	4.B< 4.F#</	4b\	-rzo-	>
.	.	8b\	-na	.
8r	8r	8r	.	]
4E 4C\	8.A</L	(8.a\L	Ta	.
.	16e/Jk	16ee\Jk)	.	.
=13	=13	=13	=13	=13
8D\	8d 8B< 8G</	(16dd/LL	źie-	.
.	.	16b/	.	.
8r	8r	16g/	.	.
.	.	16e/JJ)	.	.
4r	4r	8.d/	-mia	.
.	.	16g/	stwo-	.
4D 4DD/	4f#X 4d 4c/	8.b/L	-rzo-	.
.	.	16a/Jk	.	.
=14	=14	=14	=14	=14
4.G 4.GG\	4.g 4.d 4.B/	4g/	-na	.
.	.	4r	.	.
8r	8r	.	.	.
4A 4E-X 4C\	8.a\L	4r	.	.
.	16ee-X\Jk	.	.	.
!!LO:PB:g=original
=15	=15	=15	=15	=15
2B 2G 2D\	16dd/LL	2.r	.	.
.	16b/	.	.	.
.	16g/	.	.	.
.	16e/JJ	.	.	.
.	8d/L	.	.	.
.	16c#X/L	.	.	.
.	16d/JJ	.	.	.
4f#X> 4c 4A 4D\	8.b/L	.	.	.
.	16a/Jk	.	.	.
=16	=16	=16	=16	=16
4.B 4.G\	4.g/	4r	.	.
.	.	8r	.	.
!	!	!LO:TX:a:t=h.	!	!
8r	8r	8b\	Gdzie-	.
4A- 4AA-y\	4f 4c 4A-X</	8cc\	-kol-	.
.	.	8dd\	-wiek	.
=17	=17	=17	=17	=17
4.G 4.GG\	4.g 4.B/	8.b\L	słoń-	.
.	.	16dd\Jk	.	.
.	.	8dd\	-ce	.
8r	8r	16dd\	rzu-	.
.	.	16dd\	-ca	.
4A-X 4AA-y\	4f 4c 4A-X</	8ee-X\	o-	.
.	.	8cc\	-gnie	.
!!LO:LB:g=original
=18	=18	=18	=18	=18
4.G 4.GG\	4.g 4.B/	8.b\L	swo-	.
.	.	16dd\Jk	.	.
.	.	8dd\	-je	.
8r	8r	16dd\	rzu-	.
.	.	16dd\	-ca	.
4A-X 4AA-X\	4f 4c/	8ee-X\	o-	.
.	.	8cc\	-gnie	.
=19	=19	=19	=19	=19
4.G 4.GG\	4.g 4.B/	8.b\L	swo-	.
.	.	16dd\Jk	.	.
.	.	8dd\	-je	.
8r	8r	16dd\	rzu-	.
.	.	16dd\	-ca	.
.	.	(8qff/	.	.
4A-X 4AA-X\	4f 4c/	8ee-X\L)	o-	.
.	.	8cc\J	-gnie	.
=20	=20	=20	=20	=20
4.G 4.GG\	4.g 4.B/	4b/	swo-	.
.	.	8g/	-je	.
8GG\L	8G</L	8g/	Po	.
8C 8CC\	8c< 8E</	8cc\	ca-	.
8GG\J	8dJ 8B< 8G</	8dd\	-łym	.
=21	=21	=21	=21	=21
*	*	*2\right	*	*
[>2.C [2.CC\	2e 2c 2G</	2ee\	świe-	.
.	4c 4G< 4E</	4cc\	-cie	.
!!LO:LB:g=original
=22	=22	=22	=22	=22
2.C_> 2.CC\_	8dL 8F</	8dd\	sły-	.
.	8fJ 8A</	8ff\	-nie	.
.	4e 4G</	4ee\	I-	.
.	4d#X 4F#X</	4dd#X\	-mie	.
=23	=23	=23	=23	=23
*^	*	*	*	*
4.C] 4.CC\]	4.ryy	4e 4c 4G</	4ee\	Two-	.
.	.	8c 8G< 8E</	8cc\	-je,	.
4.A/	4.F 4.FF\	8d/L	8dd\	Bo	.
.	.	8c/	8cc\	sła-	.
.	.	8d/J	8dd\	-wy	.
*v	*v	*	*	*	*
=24	=24	=24	=24	=24
*^	*	*	*	*
2E 2EE\	2ryy	2e 2G#X</	4ee\	Nie-	.
.	.	.	4ee\	-bo	.
8D\L	4A/	8f/L	8ff\L	o-	.
8F\J	.	8d/J	8dd\J	.	.
=25	=25	=25	=25	=25	=25
2E\	2ryy	2c 2G</	4cc\	-gar-	.
.	.	.	4cc\	-nąć	.
*	*	*Xtuplet	*	*	*
!	!	!	!LO:TUP:a:problem:klamra łukowa, kreska zamiast numeruproblem:klamra łukowa	!	!
4BB\	4G/	12d/L	12dd\L	nie	.
.	.	12c/	12cc\	.	.
.	.	12d/J	12dd\J	.	.
*v	*v	*	*	*	*
!!LO:LB:g=original
=26	=26	=26	=26	=26
4.G 4.C\	4.e 4.c 4.G</	4ee\	mo-	.
.	.	8ee\	-że	.
!	!	!	!	!LO:DY:a:rj
8C\L	8c/L	8cc\	Po-	f
8E\	8e/	8ee\	-tęż-	.
8C\J	8c/J	8cc\	-ny	.
=27	=27	=27	=27	=27
2GG\	2g 2G</	(2gg 2g\	Bo-	.
4GG 4GGG\	4B< 4F</	4b\)	.	.
=28	=28	=28	=28	=28
4.C 4.CC\	4.c< 4.E</	4cc\	-że.	.
.	.	4r	.	.
16B\LL	16b\LL	.	.	.
16c\JJ	16cc\JJ	.	.	.
8e\L	8ee\L	4r	.	.
8c\J	8cc\J	.	.	.
=29	=29	=29	=29	=29
2G\	2gg 2g\	2.r	.	.
4G 4GG/	4bb 4gg 4ff 4dd\	.	.	.
=30	=30	=30	=30	=30
4c 4C\	4ccc 4gg 4ee\	4r	.	.
4r	4r	4r	.	.
==	==	==	==	==
*-	*-	*-	*-	*-
!!!system-decoration: s1{(s2,s3)}
!!!RDF**kern: > = above
!!!RDF**kern: < = below
!!!ENC: Andrzej Gręziak
!!!END: 2021-06-21
!!!ENC: Andrzej Kubiczek
!!!END: 2021-06-27
